!!!!SEGMENT: pl-sa--l-1643--025_anonim--na-boze-cialo-salve-corpus-jesu-christi.krn
!!!cenid: 16xx:1380
!!!COM: Anonim
!!!COM-rismid: pe30004985
!!!CDT:
!!!CNT:
!!!GTL: Na Boże ciało
!!!OTL: Salve corpus Jesu Christi
!!!PDT:
!!!AGN: Sacred
!!!SMS-siglum: PL-SA
!!!SMS-shelfmark: L 1643
!!!SMS-shelfwork: 025 G
!!!SMS-variant:
!!!SMS-altvar:
!!!NIFC-rismid: 1001064680
!!!URL-scan: http://repozytorium.nifc.pl/skany/pl-sa-nut--l1643
!!!ONB-nifc: UWAGA: 8 ksiąg. Primi chori: 1mus Cantus (x), C 2dus (46), C 3tius (x), Bassus (x); Secondi chori: Primus Cantus (x), C 2dus (x), Altus (x), Bassus (106). UWAGA: metrum 2/2 i 3/2. Nie dodawać pustych linii, chyba że w rękopisie pojawiają się dodatkowe oznaczenia dotyczące pełnej obsady (a 4, a 8 itp.)
**kern	**text	**text	**kern	**text	**text
*group1	*	*	*group1	*	*
*part2	*part2	*part2	*part1	*part1	*part1
*staff2	*staff2	*staff2	*staff1	*staff1	*staff1
*Iempty	*	*	*Iempty	*	*
*I"Baſsus 2di Chori	*	*	*I"Cantus 2dus Primi Chori.	*	*
*I'[Coro 2 B]	*	*	*I'[Coro 1 C 2]	*	*
*clefC3	*	*	*clefC1	*	*
*k[b-]	*	*	*k[b-]	*	*
*F:	*	*	*F:	*	*
*M2/2	*	*	*M2/2	*	*
*met(C|)	*	*	*met(C|)	*	*
=1-	=1-	=1-	=1-	=1-	=1-
!	!	!	!LO:TX:a:t=Na Boze\nciało	!	!
0r	.	.	1cc	Sal-	.
=2-	=2-	=2-	=2-	=2-	=2-
.	.	.	1cc	-ve	.
=3-	=3-	=3-	=3-	=3-	=3-
1f	Sal-	.	2.a\	cor-	.
.	.	.	4b-\	.	.
=4-	=4-	=4-	=4-	=4-	=4-
1c,>	-ve	.	1cc	-puſ	.
=5-	=5-	=5-	=5-	=5-	=5-
4F/	cor-	.	1cc	Sal-	.
4G/	.	.	.	.	.
4A/	.	.	.	.	.
4B-/	.	.	.	.	.
=6-	=6-	=6-	=6-	=6-	=6-
1c	-puſ	.	1cc	-ve	.
=7-	=7-	=7-	=7-	=7-	=7-
0r	.	.	2.a\	cor-	.
.	.	.	4b-\	.	.
=8-	=8-	=8-	=8-	=8-	=8-
.	.	.	1cc	-puſ	.
=9-	=9-	=9-	=9-	=9-	=9-
2B-/	Je-	.	2dd\	ie-	.
2f\	-ſu	.	2a\	-ſu	.
=10-	=10-	=10-	=10-	=10-	=10-
1c	chrÿ-	.	1cc	chri-	.
=11-	=11-	=11-	=11-	=11-	=11-
2F/	-ſtÿ,	.	2cc\	-ſti	.
2r	.	.	1b-\	quod	.
=12-	=12-	=12-	=12-	=12-	=12-
0r	.	.	.	.	.
.	.	.	2cc\	de	.
=13-	=13-	=13-	=13-	=13-	=13-
.	.	.	1cc	cae-	.
=14-	=14-	=14-	=14-	=14-	=14-
2r	.	.	2dd\	-lo	.
1e-X\	deſ-	.	2r	.	.
=15-	=15-	=15-	=15-	=15-	=15-
.	.	.	0r	.	.
2B-/	-cen-	.	.	.	.
=16-	=16-	=16-	=16-	=16-	=16-
1F	-dÿ-	.	.	.	.
=17-	=17-	=17-	=17-	=17-	=17-
2B-/	-ſtÿ	.	2r	.	.
2r	.	.	1dd\	quod	.
=18-	=18-	=18-	=18-	=18-	=18-
0r	.	.	.	.	.
.	.	.	2cc\	de	.
=19-	=19-	=19-	=19-	=19-	=19-
.	.	.	1ee-X	cae-	.
!	!	!	!LO:SIC:v:t=custos dd	!	!
!	!	!	!LO:LB:g=original	!	!
=20-	=20-	=20-	=20-	=20-	=20-
2r	.	.	2dd\	-lo,	.
1B-/	deſ-	.	2r	.	.
=21-	=21-	=21-	=21-	=21-	=21-
.	.	.	0r	.	.
2B-/	-cen-	.	.	.	.
=22-	=22-	=22-	=22-	=22-	=22-
1f	-dÿ-	.	.	.	.
=23-	=23-	=23-	=23-	=23-	=23-
4B-,>/	-ſtÿ	.	1r	.	.
4f\	et	.	.	.	.
4f\	po-	.	.	.	.
4f\	-pu-	.	.	.	.
=24-	=24-	=24-	=24-	=24-	=24-
2B-/	-lum	et	4r	.	.
.	.	.	4b-\	et	.
!LO:SIC:v:t=custos c	!	!	!	!	!
!LO:PB:g=original	!	!	!	!	!
2r	.	.	4b-\	po-	.
.	.	.	4dd\	-pu-	.
=25-	=25-	=25-	=25-	=25-	=25-
4r	.	.	2cc\	-lum,	.
4c/	et	.	.	.	.
4c/	po-	.	2r	.	.
4c/	-pu-	.	.	.	.
=26-	=26-	=26-	=26-	=26-	=26-
2f\	-lum	.	4r	.	.
.	.	.	4cc\	et	.
2r	.	.	4cc\	po-	.
.	.	.	4cc\	-pu-	.
=27-	=27-	=27-	=27-	=27-	=27-
0r	.	.	2dd\	-lum	.
.	.	.	1b-\	re-	.
=28-	=28-	=28-	=28-	=28-	=28-
.	.	.	.	.	.
.	.	.	2.b-\	-de-	.
=29-	=29-	=29-	=29-	=29-	=29-
!LO:TX:t=P:problem:brak pauzy 1r	!	!	!	!	!
1ryy	.	.	.	.	.
.	.	.	8a\L	.	.
.	.	.	8g\J	.	.
.	.	.	2a\	-mi-	.
=30-	=30-	=30-	=30-	=30-	=30-
4r	.	.	2b-\	-ſti,	.
4B-/	et	.	.	.	.
4B-/	po-	.	2r	.	.
4B-/	-pu-	.	.	.	.
=31-	=31-	=31-	=31-	=31-	=31-
2f\	-lum	.	0r	.	.
1g\	re-	.	.	.	.
=32-	=32-	=32-	=32-	=32-	=32-
.	.	.	.	.	.
2e-X\	-de-	.	.	.	.
=33-	=33-	=33-	=33-	=33-	=33-
1f	-mi-	.	1r	.	.
=34-	=34-	=34-	=34-	=34-	=34-
2B-/	-ſtÿ	.	2r	.	.
2r	.	.	1cc\	dum	.
=35-	=35-	=35-	=35-	=35-	=35-
00r	.	.	.	.	.
.	.	.	2cc\	in	.
=36-	=36-	=36-	=36-	=36-	=36-
.	.	.	1a	cru-	.
=37-	=37-	=37-	=37-	=37-	=37-
.	.	.	1a	-ce	.
=38-	=38-	=38-	=38-	=38-	=38-
.	.	.	2a\	pe-	.
.	.	.	2b-\	-pen-	diſ
!	!	!	!LO:SIC:v:t=custos g	!	!
!	!	!	!LO:PB:g=original	!	!
=39-	=39-	=39-	=39-	=39-	=39-
1r	.	.	1g	-di-	.
=40-	=40-	=40-	=40-	=40-	=40-
2r	.	.	2a\	-ſti,	.
1f\	dum	.	2r	.	.
=41-	=41-	=41-	=41-	=41-	=41-
.	.	.	00r	.	.
2f\	in	.	.	.	.
=42-	=42-	=42-	=42-	=42-	=42-
2.B-/	cru-	.	.	.	.
4c/	.	.	.	.	.
=43-	=43-	=43-	=43-	=43-	=43-
2d\	-ce	.	.	.	.
1e-X\	pe-	.	.	.	.
=44-	=44-	=44-	=44-	=44-	=44-
.	.	.	.	.	.
2B-/	-pen-	.	.	.	.
=45-	=45-	=45-	=45-	=45-	=45-
1F	-dÿ-	.	1r	.	.
=46-	=46-	=46-	=46-	=46-	=46-
2B-,>/	-ſti,	.	2r	.	.
1B-/	pe-	.	1dd\	pe-	.
=47-	=47-	=47-	=47-	=47-	=47-
.	.	.	.	.	.
2f\	-pen-	.	2a\	-pen-	.
!LO:SIC:v:t=custos c	!	!	!	!	!
!LO:LB:g=original	!	!	!`	!	!
=48-	=48-	=48-	=48-	=48-	=48-
1c	-dÿ-	.	2cc\	-di-	.
.	.	.	2g/	.	.
=49-	=49-	=49-	=49-	=49-	=49-
1f	-ſti,	.	1a	-ſti,	.
=50-	=50-	=50-	=50-	=50-	=50-
*M3/2	*	*	*M3/2	*	*
1.r	.	.	1cc	Je-	.
.	.	.	2g/	-su	.
=51-	=51-	=51-	=51-	=51-	=51-
1B-	Je-	.	1b-	bo-	.
2f\	-ſu	.	2cc\	-ne	.
=52-	=52-	=52-	=52-	=52-	=52-
1B-	bo-	.	1b-	Je-	.
2F,>/	-ne,	.	2cc\	-su	.
=53-	=53-	=53-	=53-	=53-	=53-
1B-	ie-	.	1b-	bo-	.
2f\	-ſu	.	2cc\	-ne	.
=54-	=54-	=54-	=54-	=54-	=54-
1B-	bo-	.	1.r	.	.
2F/,>	-ne,	.	.	.	.
=55-	=55-	=55-	=55-	=55-	=55-
0.r	.	.	2dd\	fons	.
.	.	.	2b-\	pi-	.
.	.	.	2cc\	-e-	.
=56-	=56-	=56-	=56-	=56-	=56-
.	.	.	1.b-	-ta-	.
=57-	=57-	=57-	=57-	=57-	=57-
2f\	fonſ	.	2cc\	-tis,	.
2f\	pi-	.	2r	.	.
2f\	-e-	.	2r	.	.
=58-	=58-	=58-	=58-	=58-	=58-
1c	-ta-	.	1.r	.	.
2F/	-tyſ,	.	.	.	.
!	!	!	!LO:SIC:v:t=custos cc	!	!
!	!	!	!LO:LB:g=original	!	!
=59-	=59-	=59-	=59-	=59-	=59-
*M2/2	*	*	*M2/2	*	*
*met(C|)	*	*	*met(C|)	*	*
0r	.	.	0r	.	.
=60-	=60-	=60-	=60-	=60-	=60-
1r	.	.	1r	.	.
=61-	=61-	=61-	=61-	=61-	=61-
2r	.	.	2r	.	.
1f\	Mi-	.	1cc\	mi-	.
=62-	=62-	=62-	=62-	=62-	=62-
2f\	-ſe-	.	2cc\	-ſe-	.
=63-	=63-	=63-	=63-	=63-	=63-
2B-/	-re-	.	2b-\	-re-	.
2f\	-re	.	2a\	-re	.
=64-	=64-	=64-	=64-	=64-	=64-
1c	no-	.	1cc	no-	.
=65-	=65-	=65-	=65-	=65-	=65-
2f\	-biſ,	.	2cc\	-bis,	.
2r	.	.	2r	.	.
=66-	=66-	=66-	=66-	=66-	=66-
0r	.	.	0r	.	.
=67-	=67-	=67-	=67-	=67-	=67-
1r	.	.	1r	.	.
=68-	=68-	=68-	=68-	=68-	=68-
2r	.	.	2r	.	.
1d\	mi-	.	1dd\	mi-	.
=69-	=69-	=69-	=69-	=69-	=69-
!LO:SIC:v:t=custos d [błędnie]	!	!	!	!	!
!LO:LB:g=original	!	!	!	!	!
2B-/	-ſe-	.	2dd\	-ſe-	.
=70-	=70-	=70-	=70-	=70-	=70-
2e-X\	-re-	.	2b-\	-re-	.
2B-/	-re	.	2b-\	-re	.
=71-	=71-	=71-	=71-	=71-	=71-
1f	no-	.	1cc	no-	.
=72-	=72-	=72-	=72-	=72-	=72-
2B-/	-biſ,	.	2b-\	-bis,	.
2r	.	.	2r	.	.
=73-	=73-	=73-	=73-	=73-	=73-
0r	.	.	0r	.	.
=74-	=74-	=74-	=74-	=74-	=74-
2r	.	.	2r	.	.
1f\	mi-	.	1cc\	mi-	.
=75-	=75-	=75-	=75-	=75-	=75-
.	.	.	.	.	.
2f\	-ſe-	.	2cc\	-ſe-	.
=76-	=76-	=76-	=76-	=76-	=76-
2B-/	-re-	.	2b-\	-re-	.
2f\	-re	.	1cc\	-re	.
=77-	=77-	=77-	=77-	=77-	=77-
1c	no-	.	.	.	.
.	.	.	2g/	no-	.
=78-	=78-	=78-	=78-	=78-	=78-
2f,>\	-biſ,	.	2a\	-bis	.
1F/	mi-	.	1cc\	mi-	.
=79-	=79-	=79-	=79-	=79-	=79-
2F/	-ſe-	.	2a\	-ſe-	.
!	!	!	!LO:SIC:v:t=custos b-	!	!
!	!	!	!LO:LB:g=original	!	!
=80-	=80-	=80-	=80-	=80-	=80-
2B-/	-re-	.	1b-	-re-	.
2B-/	-re	.	.	.	.
=81-	=81-	=81-	=81-	=81-	=81-
4F/	no-	.	2.a\	-re	.
4G/	.	.	.	.	.
4A/	.	.	.	.	.
4B-/	.	.	4b-\	.	.
=82-	=82-	=82-	=82-	=82-	=82-
0c	.	.	1.cc	no-	.
=83-	=83-	=83-	=83-	=83-	=83-
.	.	.	2g/	.	.
=84-	=84-	=84-	=84-	=84-	=84-
0F;;	-bis,	.	0a;;	-bis,	.
=-	=-	=-	=-	=-	=-
*-	*-	*-	*-	*-	*-
!!!system-decoration: [(s1)][(s2)]
!!!ENC: Andrzej Kubiczek
!!!END: 2021-10-02
!!!EED: Jędrzej Mróz
!!!ESR: 2021-10-08
!!!RDF**kern: > = above
!!!RDF**kern: < = below
